X: 23379
T: Lemascally Mill
R: reel
M: 4/4
K: Dmixolydian
|fded f d3|dcAB cAFG|Adde fded|cdef g2 ag|
fded fdec|dcAG FGAB|cdef geag|agec d2 de||
fdec dcAB|cAGE FDFG|ABcA dcAB|cdef g2 ag|
fded fdef|dcAB cAFG|Adfd gefg|agec d2 fg|
a2 af dfaf|bfaf gfed|cAef gfed|ceAB cdeg|
fgaf dfaf|bfaf gfed|cAef geag|agec d2 fg|
abaf dfaf|gfed ceAB|cAef gfed|ceAB cdeg|
fdad bfaf|gfed cAGA|defd geag|agec d4||

